build/images/content/marketing/img_4.svg

<svg width="120" height="120" viewBox="0 0 120 120" fill="none" xmlns="http://www.w3.org/2000/svg">
<path d="M88.7312 50.4233C77.1145 50.4233 67.6621 59.8757 67.6621 71.4924V103.753C68.6083 103.263 69.6273 102.895 70.7018 102.68L82.9851 100.223V97.009C79.0145 95.1166 76.1242 91.3319 75.4768 86.8154H75.3236C72.1498 86.8154 69.5775 84.2431 69.5775 81.0693C69.5775 77.8955 72.1498 75.3232 75.3236 75.3232H78.6889C83.8911 75.3232 88.8825 73.2565 92.562 69.5771L93.2055 70.5424C95.1975 73.5285 98.5494 75.3232 102.139 75.3232C105.313 75.3232 107.885 77.8955 107.885 81.0693C107.885 84.2431 105.313 86.8154 102.139 86.8154H101.986C101.338 91.33 98.446 95.1166 94.4773 97.009V100.223L106.761 102.68C107.835 102.895 108.856 103.263 109.8 103.753V71.4924C109.8 59.8757 100.348 50.4233 88.7312 50.4233Z" fill="#00BBD3"/>
<path d="M31.2703 0.623535C19.6535 0.623535 10.2012 10.0759 10.2012 21.6926V31.2695H12.1165C12.1165 28.0957 14.6889 25.5234 17.8627 25.5234C21.4521 25.5234 24.804 23.7287 26.796 20.7426L27.4395 19.7773C31.119 23.4567 36.1085 25.5234 41.3126 25.5234H44.6779C47.8516 25.5234 50.424 28.0957 50.424 31.2695H52.3394V21.6926C52.3394 10.0759 42.887 0.623535 31.2703 0.623535Z" fill="#00BBD3"/>
<path d="M79.1544 48.255V35.1002H67.6621C64.4941 35.1002 61.916 32.5221 61.916 29.3541V6.36965C61.916 3.20163 64.4941 0.623535 67.6621 0.623535H113.631C116.799 0.623535 119.377 3.20163 119.377 6.36965V29.3541C119.377 32.5221 116.799 35.1002 113.631 35.1002H98.8885L79.1544 48.255Z" fill="#00BBD3"/>
<path d="M59.9358 60.4654C58.551 55.6176 54.6188 51.9918 49.6752 51.0035L38.9319 48.8525V48.3488C42.4753 46.2917 45.1147 42.8593 46.126 38.7834C49.6599 38.1034 52.3395 34.9986 52.3395 31.2694C52.3395 27.0441 48.9033 23.6079 44.678 23.6079H41.3127C36.5836 23.6079 32.138 21.7672 28.7938 18.423L27.1427 16.77L25.2025 19.6795C23.5629 22.1388 20.8182 23.6079 17.8628 23.6079C13.6375 23.6079 10.2013 27.0441 10.2013 31.2694C10.2013 34.9986 12.8809 38.1034 16.4147 38.7853C17.4261 42.8612 20.0654 46.2936 23.6089 48.3507V48.8544L12.8675 51.0035C7.92198 51.9918 3.98972 55.6176 2.60491 60.4654L0 69.5768H62.5388L59.9358 60.4654ZM27.4396 49.9194C28.6674 50.2373 29.9449 50.4231 31.2704 50.4231C32.5958 50.4231 33.8734 50.2373 35.1011 49.9194V50.4231C35.1011 52.5358 33.383 54.2539 31.2704 54.2539C29.1577 54.2539 27.4396 52.5358 27.4396 50.4231V49.9194ZM48.5087 31.2694C48.5087 32.681 47.733 33.903 46.5934 34.5677V27.9711C47.733 28.6358 48.5087 29.8578 48.5087 31.2694ZM14.032 31.2694C14.032 29.8578 14.8077 28.6358 15.9474 27.9711V34.5677C14.8077 33.903 14.032 32.681 14.032 31.2694ZM19.7781 35.1001V27.2758C22.9232 26.7951 25.7809 25.1651 27.7729 22.6521C31.5941 25.7531 36.3231 27.4386 41.3127 27.4386H42.7626V35.1001C42.7626 41.4381 37.6083 46.5924 31.2704 46.5924C24.9324 46.5924 19.7781 41.4381 19.7781 35.1001ZM48.0893 65.7461L46.5359 59.5345L42.8201 60.4635L44.1398 65.7461H18.401L19.7207 60.4654L16.0049 59.5365L14.4515 65.7461H5.07957L6.28817 61.5169C7.27842 58.054 10.0864 55.4625 13.6183 54.7576L23.9881 52.6833C24.9592 55.7996 27.838 58.0846 31.2704 58.0846C34.7027 58.0846 37.5815 55.7996 38.5526 52.6833L48.9244 54.7576C52.4563 55.4644 55.2642 58.054 56.2545 61.5169L57.4612 65.7461H48.0893Z" fill="#043A52"/>
<path d="M117.397 110.265C116.012 105.417 112.08 101.792 107.136 100.803L96.3928 98.6523V98.1486C99.9362 96.0915 102.576 92.6591 103.587 88.5832C107.121 87.9032 109.8 84.7984 109.8 81.0692C109.8 76.8439 106.364 73.4077 102.139 73.4077C99.1835 73.4077 96.4388 71.9386 94.7992 69.4793L92.8589 66.5698L91.2079 68.2228C87.8636 71.567 83.4181 73.4077 78.689 73.4077H75.3237C71.0984 73.4077 67.6622 76.8439 67.6622 81.0692C67.6622 84.7984 70.3418 87.9032 73.8757 88.5851C74.887 92.661 77.5264 96.0934 81.0698 98.1505V98.6542L70.3284 100.803C65.3829 101.792 61.4507 105.417 60.0658 110.265L57.4609 119.377H120L117.397 110.265ZM84.9006 99.7192C86.1283 100.037 87.4059 100.223 88.7313 100.223C90.0567 100.223 91.3343 100.037 92.5621 99.7192V100.223C92.5621 102.336 90.844 104.054 88.7313 104.054C86.6187 104.054 84.9006 102.336 84.9006 100.223V99.7192ZM105.97 81.0692C105.97 82.4808 105.194 83.7028 104.054 84.3675V77.7709C105.194 78.4356 105.97 79.6576 105.97 81.0692ZM71.493 81.0692C71.493 79.6576 72.2687 78.4356 73.4083 77.7709V84.3675C72.2687 83.7028 71.493 82.4808 71.493 81.0692ZM77.2391 84.8999V77.2384H78.689C83.6766 77.2384 88.4076 75.5529 92.2288 72.4519C94.2189 74.963 97.0766 76.5949 100.224 77.0756V84.8999C100.224 91.2379 95.0693 96.3922 88.7313 96.3922C82.3933 96.3922 77.2391 91.2379 77.2391 84.8999ZM105.55 115.546L103.997 109.334L100.281 110.263L101.601 115.546H75.8619L77.1816 110.265L73.4658 109.336L71.9124 115.546H62.5405L63.7491 111.317C64.7394 107.854 67.5473 105.262 71.0792 104.557L81.4491 102.483C82.4202 105.599 85.299 107.884 88.7313 107.884C92.1637 107.884 95.0425 105.599 96.0136 102.483L106.385 104.557C109.917 105.264 112.725 107.854 113.715 111.317L114.922 115.546H105.55Z" fill="#043A52"/>
<path d="M19.0832 80.9466L26.5838 84.6969L28.298 81.2703L15.0915 74.668L8.48926 87.8745L11.9159 89.5887L15.5129 82.3946C22.6496 96.507 36.3809 106.649 52.0372 109.168L52.6443 105.385C38.3001 103.077 25.7104 93.8274 19.0832 80.9466Z" fill="#043A52"/>
<path d="M75.3233 23.608C78.4913 23.608 81.0694 21.0299 81.0694 17.8618C81.0694 14.6938 78.4913 12.1157 75.3233 12.1157C72.1552 12.1157 69.5771 14.6938 69.5771 17.8618C69.5771 21.0299 72.1552 23.608 75.3233 23.608ZM75.3233 15.9465C76.3786 15.9465 77.2386 16.8065 77.2386 17.8618C77.2386 18.9172 76.3786 19.7772 75.3233 19.7772C74.2679 19.7772 73.4079 18.9172 73.4079 17.8618C73.4079 16.8065 74.2679 15.9465 75.3233 15.9465Z" fill="#043A52"/>
<path d="M90.6465 23.608C93.8145 23.608 96.3926 21.0299 96.3926 17.8618C96.3926 14.6938 93.8145 12.1157 90.6465 12.1157C87.4785 12.1157 84.9004 14.6938 84.9004 17.8618C84.9004 21.0299 87.4785 23.608 90.6465 23.608ZM90.6465 15.9465C91.7019 15.9465 92.5619 16.8065 92.5619 17.8618C92.5619 18.9172 91.7019 19.7772 90.6465 19.7772C89.5911 19.7772 88.7311 18.9172 88.7311 17.8618C88.7311 16.8065 89.5911 15.9465 90.6465 15.9465Z" fill="#043A52"/>
<path d="M105.97 23.608C109.138 23.608 111.716 21.0299 111.716 17.8618C111.716 14.6938 109.138 12.1157 105.97 12.1157C102.802 12.1157 100.224 14.6938 100.224 17.8618C100.224 21.0299 102.802 23.608 105.97 23.608ZM105.97 15.9465C107.025 15.9465 107.885 16.8065 107.885 17.8618C107.885 18.9172 107.025 19.7772 105.97 19.7772C104.914 19.7772 104.054 18.9172 104.054 17.8618C104.054 16.8065 104.914 15.9465 105.97 15.9465Z" fill="#043A52"/>
</svg>

<svg width="120" height="120" fill="none" xmlns="http://www.w3.org/2000/svg"><path d="M88.731 50.423c-11.616 0-21.069 9.453-21.069 21.07v32.26c.946-.49 1.965-.858 3.04-1.073l12.283-2.457v-3.214a13.418 13.418 0 01-7.508-10.194h-.153a5.746 5.746 0 110-11.492h3.365a19.621 19.621 0 0013.873-5.746l.644.965a10.74 10.74 0 008.933 4.781 5.745 5.745 0 015.746 5.746 5.745 5.745 0 01-5.746 5.746h-.153a13.427 13.427 0 01-7.509 10.194v3.214l12.284 2.457c1.074.215 2.095.583 3.039 1.073v-32.26c0-11.617-9.452-21.07-21.069-21.07zM31.27.624c-11.616 0-21.069 9.452-21.069 21.069v9.576h1.915a5.746 5.746 0 015.747-5.746 10.74 10.74 0 008.933-4.78l.643-.966a19.618 19.618 0 0013.874 5.746h3.365a5.746 5.746 0 015.746 5.747h1.915v-9.577c0-11.617-9.452-21.07-21.069-21.07zm47.884 47.631V35.1H67.662a5.753 5.753 0 01-5.746-5.746V6.37A5.753 5.753 0 0167.662.624h45.969a5.753 5.753 0 015.746 5.746v22.984a5.753 5.753 0 01-5.746 5.746H98.888L79.154 48.255z" fill="#00BBD3"/><path d="M59.936 60.465a13.353 13.353 0 00-10.26-9.462l-10.744-2.15v-.504a15.358 15.358 0 007.194-9.566c3.534-.68 6.214-3.784 6.214-7.514 0-4.225-3.437-7.661-7.662-7.661h-3.365c-4.73 0-9.175-1.84-12.52-5.185l-1.65-1.653-1.94 2.91a8.805 8.805 0 01-7.34 3.928c-4.226 0-7.662 3.436-7.662 7.661 0 3.73 2.68 6.834 6.214 7.516a15.358 15.358 0 007.194 9.566v.503l-10.742 2.15a13.353 13.353 0 00-10.262 9.461L0 69.577h62.539l-2.603-9.112zM27.44 49.92c1.227.318 2.505.504 3.83.504a15.23 15.23 0 003.831-.504v.504a3.835 3.835 0 01-3.83 3.83 3.835 3.835 0 01-3.831-3.83v-.504zm21.069-18.65c0 1.412-.776 2.634-1.916 3.299V27.97c1.14.665 1.916 1.887 1.916 3.298zm-34.477 0c0-1.411.776-2.633 1.915-3.298v6.597c-1.14-.665-1.915-1.887-1.915-3.299zm5.746 3.831v-7.824a12.606 12.606 0 007.995-4.624c3.821 3.101 8.55 4.787 13.54 4.787h1.45v7.66c0 6.338-5.155 11.492-11.493 11.492S19.778 41.438 19.778 35.1zM48.09 65.746l-1.553-6.211-3.716.929 1.32 5.282H18.4l1.32-5.28-3.716-.93-1.553 6.21H5.08l1.208-4.23a9.54 9.54 0 017.33-6.758l10.37-2.075c.971 3.117 3.85 5.402 7.282 5.402 3.433 0 6.311-2.285 7.283-5.402l10.371 2.075a9.542 9.542 0 017.33 6.759l1.207 4.23H48.09zm69.307 44.519a13.355 13.355 0 00-10.261-9.462l-10.743-2.15v-.504a15.357 15.357 0 007.194-9.566c3.534-.68 6.213-3.785 6.213-7.514 0-4.225-3.436-7.661-7.661-7.661-2.956 0-5.7-1.47-7.34-3.929l-1.94-2.91-1.651 1.654a17.587 17.587 0 01-12.519 5.185h-3.365c-4.226 0-7.662 3.436-7.662 7.661 0 3.73 2.68 6.834 6.214 7.516a15.358 15.358 0 007.194 9.566v.503l-10.742 2.149a13.354 13.354 0 00-10.262 9.462l-2.605 9.112H120l-2.603-9.112zM84.901 99.719c1.227.318 2.505.504 3.83.504a15.24 15.24 0 003.831-.504v.504a3.835 3.835 0 01-3.83 3.831 3.835 3.835 0 01-3.831-3.831v-.504zm21.069-18.65c0 1.412-.776 2.634-1.916 3.299V77.77c1.14.665 1.916 1.887 1.916 3.298zm-34.477 0c0-1.411.776-2.633 1.915-3.298v6.597c-1.14-.665-1.915-1.887-1.915-3.299zm5.746 3.83v-7.66h1.45c4.988 0 9.719-1.686 13.54-4.787a12.605 12.605 0 007.995 4.624V84.9c0 6.338-5.155 11.492-11.493 11.492S77.24 91.238 77.24 84.9zm28.311 30.647l-1.553-6.212-3.716.929 1.32 5.283h-25.74l1.32-5.281-3.715-.929-1.554 6.21H62.54l1.21-4.229a9.54 9.54 0 017.33-6.76l10.37-2.074c.97 3.116 3.849 5.401 7.281 5.401 3.433 0 6.312-2.285 7.283-5.401l10.371 2.074a9.543 9.543 0 017.33 6.76l1.207 4.229h-9.372zM19.083 80.947l7.5 3.75 1.715-3.427-13.206-6.602-6.603 13.206 3.427 1.715 3.597-7.194c7.137 14.112 20.868 24.254 36.524 26.773l.607-3.783C38.3 103.077 25.71 93.827 19.084 80.947zm56.24-57.339a5.753 5.753 0 005.746-5.746 5.753 5.753 0 00-5.746-5.746 5.753 5.753 0 00-5.746 5.746 5.753 5.753 0 005.746 5.746zm0-7.662c1.056 0 1.916.86 1.916 1.916 0 1.055-.86 1.915-1.916 1.915a1.919 1.919 0 01-1.915-1.915c0-1.055.86-1.915 1.915-1.915zm15.324 7.662a5.753 5.753 0 005.746-5.746 5.753 5.753 0 00-5.746-5.746 5.753 5.753 0 00-5.747 5.746 5.753 5.753 0 005.746 5.746zm0-7.662c1.055 0 1.915.86 1.915 1.916 0 1.055-.86 1.915-1.915 1.915a1.919 1.919 0 01-1.916-1.915c0-1.055.86-1.915 1.916-1.915zm15.323 7.662a5.753 5.753 0 005.746-5.746 5.753 5.753 0 00-5.746-5.746 5.753 5.753 0 00-5.746 5.746 5.753 5.753 0 005.746 5.746zm0-7.662c1.055 0 1.915.86 1.915 1.916 0 1.055-.86 1.915-1.915 1.915a1.919 1.919 0 01-1.916-1.915c0-1.055.86-1.915 1.916-1.915z" fill="#043A52"/></svg>
